modules/feathericon/icons/file-excel.svg

<svg width="24" height="24" viewBox="0 0 24 24" xmlns="http://www.w3.org/2000/svg"><path d="M6 2h10l4 4v14a2 2 0 0 1-2 2H6a2 2 0 0 1-2-2V4a2 2 0 0 1 2-2zm9 2H6v16h12V7h-3V4zm-8 8h3l2 2 2-2h3l-3 3 3 3h-3l-2-2-2 2H7l3-3-3-3z" fill="#000" fill-rule="evenodd"/></svg>

<?xml version="1.0" encoding="UTF-8"?>
<svg width="24px" height="24px" viewBox="0 0 24 24" version="1.1" xmlns="http://www.w3.org/2000/svg" xmlns:xlink="http://www.w3.org/1999/xlink">
    <!-- Generator: sketchtool 52.2 (67145) - http://www.bohemiancoding.com/sketch -->
    <title>file-excel</title>
    <desc>Created with sketchtool.</desc>
    <g id="file-types" stroke="none" stroke-width="1" fill="none" fill-rule="evenodd">
        <g id="file-excel" fill="#000000">
            <path d="M6,2 L16,2 L20,6 L20,20 C20,21.1045695 19.1045695,22 18,22 L6,22 C4.8954305,22 4,21.1045695 4,20 L4,4 C4,2.8954305 4.8954305,2 6,2 Z M15,4 L6,4 L6,20 L18,20 L18,7 L15,7 L15,4 Z M7,12 L10,12 L12,14 L14,12 L17,12 L14,15 L17,18 L14,18 L12,16 L10,18 L7,18 L10,15 L7,12 Z" id="Shape"></path>
        </g>
    </g>
</svg>
